X:10
T:Alabama Jubilee
C:George L. Cobb and Jack Yellen
S:https://secondhandsongs.com/work/115693
Q:1/2=120
M:2/2
R:Reel
%%MIDI chordname dim 0 3 6 9
L:1/4
K:C
cB_B || "A7"AG EA- | "/"AG2E | "/"AG EA- | "/"A4 | "D7"A^F DA- | "/"A^F2D | "/"A^F DA- | "/"A4 |
"G7"zB- B^A | "/"B=A- AG | "/"A^G AB- | "/"BG AB | "C"c "^BREAK" BcA- | AGE z | "C"c "^BREAK" BcA- | AGEz |
"A7"AG EA- | "/"AG2E | "/"AG EA- | "/"A4 | "Dm"D^C DE | "A7"FE FG | "Dm"A2 ^GA- | "Ebdim"AB cd |
"C"e4 | "E7"d3d | "Am"c2 "F"A2 | "C"G2 ^FG | "D7"Ac Ac | "G7"B2 G2 | "C"c4- | "C"c |]
N:Replace by blank line and X field
T:Waiting for the Robert E. Lee
C:Lewis F. Muir and L. Wolfe Gilbert, 1912
L:1/4
M:2/2
R:Reel
S:Colin Hume's website,  colinhume.com  - chords can also be printed below the stave.
Q:1/2=120
K:G
"G"Be- ee- | ed B2 | G4- | G4 | "D"E=F- F ^F- | ^FAf2 | e4- | ed e=f |
"D7"^f4 | e3E | d4 | c3_B | "G"=Bd _B=B- | Bd- d_B | "G"=Bd _B=B- | Bd _dc |
"G"Be- ee- | ed B2 | G4- | G4 | "D"E=F- F ^F- | ^FAf2 | e4- | ed e=f |
"D7"^f4 | e4 | de fd | ef3 | de fd | ed e2 | "G"g4- | g4 |]

